common/src/main/resources/icons/plugins/docker/Docker_toolwin.svg

<!--
  - The MIT License (MIT)
  -
  - Copyright (c) 2015-2022 Elior "Mallowigi" Boukhobza
  -
  - Permission is hereby granted, free of charge, to any person obtaining a copy
  - of this software and associated documentation files (the "Software"), to deal
  - in the Software without restriction, including without limitation the rights
  - to use, copy, modify, merge, publish, distribute, sublicense, and/or sell
  - copies of the Software, and to permit persons to whom the Software is
  - furnished to do so, subject to the following conditions:
  -
  - The above copyright notice and this permission notice shall be included in all
  - copies or substantial portions of the Software.
  -
  - THE SOFTWARE IS PROVIDED "AS IS", WITHOUT WARRANTY OF ANY KIND, EXPRESS OR
  - IMPLIED, INCLUDING BUT NOT LIMITED TO THE WARRANTIES OF MERCHANTABILITY,
  - FITNESS FOR A PARTICULAR PURPOSE AND NONINFRINGEMENT. IN NO EVENT SHALL THE
  - AUTHORS OR COPYRIGHT HOLDERS BE LIABLE FOR ANY CLAIM, DAMAGES OR OTHER
  - LIABILITY, WHETHER IN AN ACTION OF CONTRACT, TORT OR OTHERWISE, ARISING FROM,
  - OUT OF OR IN CONNECTION WITH THE SOFTWARE OR THE USE OR OTHER DEALINGS IN THE
  - SOFTWARE.
  -
  -
  -->

<svg xmlns="http://www.w3.org/2000/svg" width="13" height="13" viewBox="0 0 13 13">
    <g fill="none" fill-rule="evenodd">
        <rect width="2" height="2" x="2" y="4" fill="#10AADB" />
        <rect width="2" height="2" x="5" y="4" fill="#10AADB" />
        <rect width="2" height="2" x="5" y=".9" fill="#10AADB" />
        <path fill="#10AADB"
              d="M12.8728971,6.11198473 L13,6.21242978 L12.9472794,6.36669562 C12.8632115,6.57948978 12.7336556,6.77134361 12.5677021,6.92883798 C12.3179873,7.17577516 11.8651459,7.47045484 11.1287533,7.47045484 C11.0899208,7.47045484 11.049952,7.47045484 11.0100013,7.47045484 C10.7120209,8.22403619 10.3113409,9.61361927 9.63876134,10.3749924 C9.2364581,10.8302687 8.7632896,11.2175833 8.23754482,11.5220388 C7.59948701,11.8833812 6.90549812,12.135459 6.18429223,12.2678827 C5.66547345,12.3643958 5.1387547,12.4121563 4.61104395,12.4104969 C3.4429126,12.4104969 2.94113742,12.2787948 2.12630458,11.8903433 C1.31147175,11.5018918 0.821493469,10.8614897 0.381386225,9.8645782 C0.0879813961,9.19997051 -0.0361336396,8.24451318 0.0090411184,6.99820621 L9.00501424,6.99820621 C9.108778,6.99432837 9.62153652,6.95048173 9.94117867,6.77235365 C9.67647558,6.35392581 9.60155213,5.86448842 9.72475919,5.34339705 C9.74273054,5.26823646 9.76418582,5.19406873 9.78902467,5.12112481 C9.8543285,4.92934789 9.94302008,4.74603016 10.0532753,4.5753685 L10.1748049,4.4 L10.3595885,4.50655941 C10.3934249,4.52652577 11.1481425,4.97159346 11.2813237,5.88445479 C11.4604979,5.85422568 11.6418185,5.83864218 11.8235178,5.83784857 C12.5116448,5.83784857 12.8379424,6.08422662 12.8728971,6.11198473 Z M3.860015,10.2 C4.55037094,10.2 5.110015,9.64035594 5.110015,8.95 C5.110015,8.25964406 4.55037094,7.7 3.860015,7.7 C3.16965906,7.7 2.610015,8.25964406 2.610015,8.95 C2.610015,9.64035594 3.16965906,10.2 3.860015,10.2 Z" />
        <circle cx="3.86" cy="8.95" r="1" fill="#10AADB" />
    </g>
</svg>

<svg xmlns="http://www.w3.org/2000/svg" width="13" height="13"><g fill="#10AADB" fill-rule="evenodd"><path d="M2 4h2v2H2zM5 4h2v2H5zM5 .9h2v2H5z"/><path d="m12.873 6.112.127.1-.053.155a1.6 1.6 0 0 1-.38.562c-.249.247-.702.541-1.438.541h-.119c-.298.754-.699 2.144-1.371 2.905a5.7 5.7 0 0 1-1.401 1.147 6.6 6.6 0 0 1-2.054.746 8.5 8.5 0 0 1-1.573.142c-1.168 0-1.67-.131-2.485-.52-.815-.388-1.305-1.029-1.745-2.025q-.44-.997-.372-2.867h8.996c.104-.004.617-.048.936-.226-.265-.418-.34-.908-.216-1.429a2.5 2.5 0 0 1 .328-.768l.122-.175.185.107c.033.02.788.465.921 1.377q.27-.045.543-.046c.688 0 1.014.246 1.049.274M3.86 10.2a1.25 1.25 0 1 0 0-2.5 1.25 1.25 0 0 0 0 2.5"/><circle cx="3.86" cy="8.95" r="1"/></g></svg>
